X:586
T:Blackberry Blossom
T:Sam Bush fiddle break on Tony Rice "Manzanita" album
T:Transcribed by GJB
O:england
M:4/4
C:Trad.
K:G
((3def) || (gb)gb (fa)fa | efge dcBG | FGEG DFGc | BAGB [A2A]D2 |
g3b fafa | efge dgeg | ((3fgf)ed BAGB | AGEF G4 :|
((3FGF)E2- E3G | FEDF EDB,D | EB,EF GFGA | BGB^c dcd^d |
eBeg ((3fgf)eB | dedB - _BAG_B | AGEF GABd | efga (fg)gg |
(fg)gg (ef)ff | dfeB dedB - | _BAG_B AG(_B=B) | e(_B=B)e (_B=B)eB |
e(B_B)A GEDG | EDEF GABd | cdfa gedc | BGAF G4 ||


